img/facebook.svg

<svg width="33" height="33" viewBox="0 0 33 33" fill="none" xmlns="http://www.w3.org/2000/svg">
<g clip-path="url(#clip0_4_1078)">
<path d="M32.8097 16.9072C32.8097 8.07067 25.6463 0.907227 16.8097 0.907227C7.97313 0.907227 0.809692 8.07067 0.809692 16.9072C0.809692 24.8932 6.66066 31.5126 14.3097 32.7129V21.5322H10.2472V16.9072H14.3097V13.3823C14.3097 9.37223 16.6984 7.15723 20.3531 7.15723C22.1036 7.15723 23.9347 7.46973 23.9347 7.46973V11.4072H21.9171C19.9296 11.4072 19.3097 12.6406 19.3097 13.9059V16.9072H23.7472L23.0378 21.5322H19.3097V32.7129C26.9587 31.5126 32.8097 24.8932 32.8097 16.9072Z" fill="#1877F2"/>
<path d="M23.0378 21.5322L23.7472 16.9073H19.3097V13.9059C19.3097 12.6405 19.9296 11.4072 21.9171 11.4072H23.9347V7.46973C23.9347 7.46973 22.1036 7.15723 20.3531 7.15723C16.6984 7.15723 14.3097 9.37223 14.3097 13.3822V16.9073H10.2472V21.5322H14.3097V32.7129C15.1243 32.8406 15.9592 32.9073 16.8097 32.9073C17.6602 32.9073 18.4951 32.8406 19.3097 32.7129V21.5322H23.0378Z" fill="white"/>
</g>
<defs>
<clipPath id="clip0_4_1078">
<rect width="32" height="32" fill="white" transform="translate(0.809692 0.907227)"/>
</clipPath>
</defs>
</svg>

<svg width="33" height="33" fill="none" xmlns="http://www.w3.org/2000/svg"><g clip-path="url(#a)"><path d="M32.81 16.907c0-8.836-7.164-16-16-16-8.837 0-16 7.164-16 16 0 7.986 5.85 14.606 13.5 15.806v-11.18h-4.063v-4.626h4.063v-3.525c0-4.01 2.388-6.225 6.043-6.225 1.75 0 3.582.313 3.582.313v3.937h-2.018c-1.987 0-2.607 1.234-2.607 2.499v3.001h4.437l-.71 4.625H19.31v11.18c7.649-1.2 13.5-7.819 13.5-15.805Z" fill="#1877F2"/><path d="m23.038 21.532.71-4.625H19.31v-3.001c0-1.266.62-2.499 2.607-2.499h2.018V7.47s-1.831-.313-3.582-.313c-3.655 0-6.043 2.215-6.043 6.225v3.525h-4.063v4.625h4.063v11.18a16.134 16.134 0 0 0 5 0v-11.18h3.728Z" fill="#fff"/></g><defs><clipPath id="a"><path fill="#fff" transform="translate(.81 .907)" d="M0 0h32v32H0z"/></clipPath></defs></svg>
